Newaita-dark/actions/32/debug-step-instruction.svg

<svg height="32" viewBox="0 0 32 32" width="32" xmlns="http://www.w3.org/2000/svg"><g fill="#e0e0e0"><path d="m5.292969 2.894531c-1.464844 0-2.648438 1.183594-2.648438 2.648438v21.167969c0 1.464843 1.183594 2.644531 2.648438 2.644531h21.167969c1.464843 0 2.644531-1.179688 2.644531-2.644531v-15.875h-2.644531v14.550781c0 .734375-.589844 1.324219-1.324219 1.324219h-18.523438c-.730469 0-1.320312-.589844-1.320312-1.324219v-18.523438c0-.730469.589843-1.320312 1.320312-1.320312h10.585938v-2.648438zm0 0"/><path d="m3.96875 10.835938h23.816406v1.320312h-23.816406zm0 0"/><path d="m12.570312 14.117188c-.574218 0-1.074218.09375-1.5.34375-.421874.25-.714843.65625-.878906 1.09375-.292968.773437-.296875 1.679687-.292968 2.792968l-.945313.472656c-.230469.117188-.378906.355469-.378906.613282 0 .261718.148437.496094.378906.613281l.945313.472656c-.003907 1.113281 0 2.019531.292968 2.792969.164063.4375.457032.84375.878906 1.09375.425782.25.925782.34375 1.5.34375.246094.003906.476563-.125.601563-.339844s.125-.476562 0-.691406-.355469-.34375-.601563-.339844c-.421874 0-.664062-.070312-.800781-.152344-.132812-.082031-.210937-.167968-.292969-.394531-.171874-.449219-.207031-1.414062-.207031-2.738281 0-.257812-.144531-.496094-.378906-.613281l-.09375-.046875.09375-.046875c.234375-.117188.378906-.355469.378906-.613281 0-1.324219.035157-2.285157.207031-2.738282.082032-.222656.160157-.3125.292969-.394531.136719-.078125.378907-.152344.800781-.152344.246094.003907.472657-.125.597657-.339843.125-.214844.125-.476563 0-.691407-.125-.210937-.351563-.34375-.597657-.339843zm0 0"/><path d="m19.183594 14.117188c-.246094-.003907-.476563.128906-.597656.339843-.125.214844-.125.476563 0 .691407.121093.214843.351562.34375.597656.339843.421875 0 .664062.074219.796875.152344.136719.082031.214843.171875.296875.394531.167968.453125.207031 1.414063.207031 2.738282 0 .257812.144531.496093.378906.613281l.09375.046875-.09375.046875c-.234375.117187-.378906.355469-.378906.613281 0 1.324219-.039063 2.289062-.207031 2.738281-.082032.226563-.160156.3125-.296875.394531-.132813.082032-.375.152344-.796875.152344-.246094-.003906-.476563.125-.601563.339844s-.125.476562 0 .691406.355469.34375.601563.339844c.574218 0 1.074218-.09375 1.496094-.34375.425781-.25.71875-.65625.882812-1.09375.289062-.773438.296875-1.679688.292969-2.792969l.941406-.472656c.234375-.117187.378906-.351563.378906-.613281 0-.257813-.144531-.496094-.378906-.613282l-.941406-.472656c.003906-1.113281-.003907-2.019531-.292969-2.792968-.164062-.4375-.457031-.84375-.882812-1.09375-.421876-.25-.921876-.34375-1.496094-.34375zm0 0"/><path d="m15.214844 18.109375h1.324218c.363282 0 .660157.296875.660157.664063v5.292968c0 .363282-.296875.660156-.660157.660156h-1.324218c-.363282 0-.660156-.296874-.660156-.660156v-5.292968c0-.367188.296874-.664063.660156-.664063zm0 0"/><path d="m15.875 14.140625c.730469 0 1.324219.59375 1.324219 1.324219 0 .730468-.59375 1.324218-1.324219 1.324218s-1.320312-.59375-1.320312-1.324218c0-.730469.589843-1.324219 1.320312-1.324219zm0 0"/><path d="m19.84375 2.894531h9.261719l-4.628907 6.617188zm0 0"/></g></svg>

<svg xmlns="http://www.w3.org/2000/svg" xmlns:xlink="http://www.w3.org/1999/xlink" width="32px" height="32px" viewBox="0 0 32 32" version="1.1">
<g id="surface1">
     <defs>
  <style id="current-color-scheme" type="text/css">
   .ColorScheme-Text { color:#eeeeee; } .ColorScheme-Highlight { color:#424242; }
  </style>
 </defs>
<path style="fill:currentColor" class="ColorScheme-Text" d="M 5.292969 2.894531 C 3.828125 2.894531 2.644531 4.078125 2.644531 5.542969 L 2.644531 26.710938 C 2.644531 28.175781 3.828125 29.355469 5.292969 29.355469 L 26.460938 29.355469 C 27.925781 29.355469 29.105469 28.175781 29.105469 26.710938 L 29.105469 10.835938 L 26.460938 10.835938 L 26.460938 25.386719 C 26.460938 26.121094 25.871094 26.710938 25.136719 26.710938 L 6.613281 26.710938 C 5.882812 26.710938 5.292969 26.121094 5.292969 25.386719 L 5.292969 6.863281 C 5.292969 6.132812 5.882812 5.542969 6.613281 5.542969 L 17.199219 5.542969 L 17.199219 2.894531 Z M 5.292969 2.894531 "/>
     <defs>
  <style id="current-color-scheme" type="text/css">
   .ColorScheme-Text { color:#eeeeee; } .ColorScheme-Highlight { color:#424242; }
  </style>
 </defs>
<path style="fill:currentColor" class="ColorScheme-Text" d="M 3.96875 10.835938 L 27.785156 10.835938 L 27.785156 12.15625 L 3.96875 12.15625 Z M 3.96875 10.835938 "/>
     <defs>
  <style id="current-color-scheme" type="text/css">
   .ColorScheme-Text { color:#eeeeee; } .ColorScheme-Highlight { color:#424242; }
  </style>
 </defs>
<path style="fill:currentColor" class="ColorScheme-Text" d="M 12.570312 14.117188 C 11.996094 14.117188 11.496094 14.210938 11.070312 14.460938 C 10.648438 14.710938 10.355469 15.117188 10.191406 15.554688 C 9.898438 16.328125 9.894531 17.234375 9.898438 18.347656 L 8.953125 18.820312 C 8.722656 18.9375 8.574219 19.175781 8.574219 19.433594 C 8.574219 19.695312 8.722656 19.929688 8.953125 20.046875 L 9.898438 20.519531 C 9.894531 21.632812 9.898438 22.539062 10.191406 23.3125 C 10.355469 23.75 10.648438 24.15625 11.070312 24.40625 C 11.496094 24.65625 11.996094 24.75 12.570312 24.75 C 12.816406 24.753906 13.046875 24.625 13.171875 24.410156 C 13.296875 24.195312 13.296875 23.933594 13.171875 23.71875 C 13.046875 23.503906 12.816406 23.375 12.570312 23.378906 C 12.148438 23.378906 11.90625 23.308594 11.769531 23.226562 C 11.636719 23.144531 11.558594 23.058594 11.476562 22.832031 C 11.304688 22.382812 11.269531 21.417969 11.269531 20.09375 C 11.269531 19.835938 11.125 19.597656 10.890625 19.480469 L 10.796875 19.433594 L 10.890625 19.386719 C 11.125 19.269531 11.269531 19.03125 11.269531 18.773438 C 11.269531 17.449219 11.304688 16.488281 11.476562 16.035156 C 11.558594 15.8125 11.636719 15.722656 11.769531 15.640625 C 11.90625 15.5625 12.148438 15.488281 12.570312 15.488281 C 12.816406 15.492188 13.042969 15.363281 13.167969 15.148438 C 13.292969 14.933594 13.292969 14.671875 13.167969 14.457031 C 13.042969 14.246094 12.816406 14.113281 12.570312 14.117188 Z M 12.570312 14.117188 "/>
     <defs>
  <style id="current-color-scheme" type="text/css">
   .ColorScheme-Text { color:#eeeeee; } .ColorScheme-Highlight { color:#424242; }
  </style>
 </defs>
<path style="fill:currentColor" class="ColorScheme-Text" d="M 19.183594 14.117188 C 18.9375 14.113281 18.707031 14.246094 18.585938 14.457031 C 18.460938 14.671875 18.460938 14.933594 18.585938 15.148438 C 18.707031 15.363281 18.9375 15.492188 19.183594 15.488281 C 19.605469 15.488281 19.847656 15.5625 19.980469 15.640625 C 20.117188 15.722656 20.195312 15.8125 20.277344 16.035156 C 20.445312 16.488281 20.484375 17.449219 20.484375 18.773438 C 20.484375 19.03125 20.628906 19.269531 20.863281 19.386719 L 20.957031 19.433594 L 20.863281 19.480469 C 20.628906 19.597656 20.484375 19.835938 20.484375 20.09375 C 20.484375 21.417969 20.445312 22.382812 20.277344 22.832031 C 20.195312 23.058594 20.117188 23.144531 19.980469 23.226562 C 19.847656 23.308594 19.605469 23.378906 19.183594 23.378906 C 18.9375 23.375 18.707031 23.503906 18.582031 23.71875 C 18.457031 23.933594 18.457031 24.195312 18.582031 24.410156 C 18.707031 24.625 18.9375 24.753906 19.183594 24.75 C 19.757812 24.75 20.257812 24.65625 20.679688 24.40625 C 21.105469 24.15625 21.398438 23.75 21.5625 23.3125 C 21.851562 22.539062 21.859375 21.632812 21.855469 20.519531 L 22.796875 20.046875 C 23.03125 19.929688 23.175781 19.695312 23.175781 19.433594 C 23.175781 19.175781 23.03125 18.9375 22.796875 18.820312 L 21.855469 18.347656 C 21.859375 17.234375 21.851562 16.328125 21.5625 15.554688 C 21.398438 15.117188 21.105469 14.710938 20.679688 14.460938 C 20.257812 14.210938 19.757812 14.117188 19.183594 14.117188 Z M 19.183594 14.117188 "/>
     <defs>
  <style id="current-color-scheme" type="text/css">
   .ColorScheme-Text { color:#eeeeee; } .ColorScheme-Highlight { color:#424242; }
  </style>
 </defs>
<path style="fill:currentColor" class="ColorScheme-Text" d="M 15.214844 18.109375 L 16.539062 18.109375 C 16.902344 18.109375 17.199219 18.40625 17.199219 18.773438 L 17.199219 24.066406 C 17.199219 24.429688 16.902344 24.726562 16.539062 24.726562 L 15.214844 24.726562 C 14.851562 24.726562 14.554688 24.429688 14.554688 24.066406 L 14.554688 18.773438 C 14.554688 18.40625 14.851562 18.109375 15.214844 18.109375 Z M 15.214844 18.109375 "/>
     <defs>
  <style id="current-color-scheme" type="text/css">
   .ColorScheme-Text { color:#eeeeee; } .ColorScheme-Highlight { color:#424242; }
  </style>
 </defs>
<path style="fill:currentColor" class="ColorScheme-Text" d="M 15.875 14.140625 C 16.605469 14.140625 17.199219 14.734375 17.199219 15.464844 C 17.199219 16.195312 16.605469 16.789062 15.875 16.789062 C 15.144531 16.789062 14.554688 16.195312 14.554688 15.464844 C 14.554688 14.734375 15.144531 14.140625 15.875 14.140625 Z M 15.875 14.140625 "/>
     <defs>
  <style id="current-color-scheme" type="text/css">
   .ColorScheme-Text { color:#eeeeee; } .ColorScheme-Highlight { color:#424242; }
  </style>
 </defs>
<path style="fill:currentColor" class="ColorScheme-Text" d="M 19.84375 2.894531 L 29.105469 2.894531 L 24.476562 9.511719 Z M 19.84375 2.894531 "/>
</g>
</svg>
